!!!COM: Palestrina, Giovanni Perluigi da
!!!OPR: Salve regina
!!!OTL: Kyrie II
**kern	**kern	**kern	**kern	**kern
*Ibass	*Itenor	*Icalto	*Icalto	*Icant
!Bassus	!Tenor	!Altus 2	!Altus 1	!Cantus
*clefF4	*clefGv2	*clefG2	*clefG2	*clefG2
*k[b-]	*k[b-]	*k[b-]	*k[b-]	*k[b-]
*G:dor	*G:dor	*G:dor	*G:dor	*G:dor
*M4/2	*M4/2	*M4/2	*M4/2	*M4/2
=1	=1	=1	=1	=1
0r	1G	0r	0r	0r
.	2B-	.	.	.
.	2c	.	.	.
=2	=2	=2	=2	=2
1r	2.d	0r	0r	0r
.	4c	.	.	.
1D	4d	.	.	.
.	4e	.	.	.
.	[2f	.	.	.
=3	=3	=3	=3	=3
2F	2f]	0r	0r	0r
2G	4e	.	.	.
.	4d	.	.	.
2.A	2.c	.	.	.
4F	4A	.	.	.
=4	=4	=4	=4	=4
4G	4B-	1d	0r	0r
4A	4c	.	.	.
1B-	1d	.	.	.
.	.	2f	.	.
4A	4c	2g	.	.
4G	4B-	.	.	.
=5	=5	=5	=5	=5
2F	2c	2.a	0r	1r
2D	2d	.	.	.
.	.	4f	.	.
2.G	2e-	4g	.	1g
.	.	4a	.	.
.	2d	[2b-	.	.
4F	.	.	.	.
=6	=6	=6	=6	=6
1E-	1G	2b-]	0r	2b-
.	.	4a	.	2cc
.	.	4g	.	.
1D	1A	2f	.	2.dd
.	.	4d	.	.
.	.	4e	.	4cc
=7	=7	=7	=7	=7
2.d	0r	4f	2r	4dd
.	.	4g	.	4ee
.	.	2a	2d	1ff
4c	.	.	.	.
1B-	.	1d	2f	.
.	.	.	2g	4ee
.	.	.	.	4dd
=8	=8	=8	=8	=8
1A	1r	2e	2.a	2.cc
.	.	2c	.	.
.	.	.	4f	4a
1r	1G	1d	4g	4b-
.	.	.	4a	4cc
.	.	.	[2b-	[2dd
=9	=9	=9	=9	=9
0r	2B-	0r	2b-]	2dd]
.	2c	.	4a	4cc
.	.	.	4g	4b-
.	2.d	.	2.f	2a
.	.	.	.	2b-
.	4B-	.	4d	.
=10	=10	=10	=10	=10
0r	4c	1r	4e	1g
.	4d	.	4f	.
.	2e-	.	1g	.
.	1d	2r	.	1a
.	.	2a	2f#	.
=11	=11	=11	=11	=11
2r	1G	2b-	1g	2.dd
2d	.	2b-	.	.
.	.	.	.	4ee
2d	1r	2.a	2r	2ff
2c#	.	.	2a	[2ee
.	.	4g	.	.
=12	=12	=12	=12	=12
1d	0r	2f	2b-	4ee]
.	.	.	.	4dd
.	.	4e	2a	1dd
.	.	4d	.	.
1A	.	1e	2.a	.
.	.	.	.	2cc#
.	.	.	4g	.
=13	=13	=13	=13	=13
2.B-	1r	0d	4f	0dd
.	.	.	4e	.
.	.	.	4d	.
4A	.	.	4c	.
2G	2r	.	2B-	.
2F	2d	.	2A	.
=14	=14	=14	=14	=14
1E	2d	2r	2G	1r
.	2c#	2g	2g	.
1D	1d	2g	2b-	2r
.	.	2f	2a	2dd
=15	=15	=15	=15	=15
0r	2G	2g	2b-	2dd
.	2A	2e	2a	2cc#
.	2.B-	1d	2r	1dd
.	.	.	2g	.
.	4c	.	.	.
=16	=16	=16	=16	=16
2r	1d	0r	2g	1a
2d	.	.	2f#	.
2d	1G	.	2g	2.b-
2B-	.	.	2d	.
.	.	.	.	4a
=17	=17	=17	=17	=17
2c	0r	1r	2e	2g
2d	.	.	1d	2f
1A	.	2r	.	1e
.	.	2a	2c#	.
=18	=18	=18	=18	=18
1B-	0r	2a	1d	2d
.	.	2g	.	2dd
1A	.	2a	1e	2dd
.	.	2e	.	2cc#
=19	=19	=19	=19	=19
2.D	2r	1.f	1a	1dd
.	2d	.	.	.
4E	.	.	.	.
4F	2d	.	2r	1a
4G	.	.	.	.
2A	2c#	2e	2a	.
=20	=20	=20	=20	=20
1D	2d	0d	2a	2.ff
.	2A	.	2a	.
.	.	.	.	4ee
2.BB-	2.f	.	2.b-	2.dd
4C	4e	.	8a	4cc
.	.	.	8g	.
=21	=21	=21	=21	=21
4D	2d	1r	2.f	2b-
4E	.	.	.	.
2F	2c	.	.	2a
.	.	.	4e	.
1G	1B-	2r	1d	4g
.	.	.	.	4a
.	.	2g	.	4b-
.	.	.	.	4cc
=22	=22	=22	=22	=22
1D	1A	2g	0d	2dd
.	.	2f#	.	2a
2r	1G	2g	.	1b-
2d	.	2d	.	.
=23	=23	=23	=23	=23
2d	1A	2f	2r	1a
2c#	.	2e	2a	.
2d	1r	2f	2a	2r
2B-	.	4e	2g	2dd
.	.	4d	.	.
=24	=24	=24	=24	=24
1A	1r	1e	2a	2dd
.	.	.	2e	2cc#
2.D	2r	1a	[1f	1dd
.	2d	.	.	.
4E	.	.	.	.
=25	=25	=25	=25	=25
4F	2d	2r	2f]	1a
4G	.	.	.	.
2A	2c#	1a	2e	.
1D	2d	.	2d	2.ff
.	2A	2a	[2d	.
.	.	.	.	4ee
=26	=26	=26	=26	=26
2.BB-	2.f	2.b-	4d]	2.dd
.	.	.	4c	.
.	.	.	4d	.
4C	4e	8a	4e	4cc
.	.	8g	.	.
4D	2d	2.f	4f	2b-
4E	.	.	4g	.
2F	2c	.	[2a	2a
.	.	4e	.	.
=27	=27	=27	=27	=27
1G	1B-	0d	4a]	0dd
.	.	.	4g	.
.	.	.	1g	.
1D	1A	.	.	.
.	.	.	2f#	.
=28	=28	=28	=28	=28
0G	0G	0d	0g	0b
==	==	==	==	==
*-	*-	*-	*-	*-
!!!CDT: 1525/^1526/-1594/2/2
!!!OCY: Italia
!!!AGN: Mass (Paraphrase)
!!!AST: renaissance, vocal
!!!ASW: Antiphon
!!!PWK: Masses, Book 11
!!!RNB: Cadence finals: D
!!!YOR: Le Opere Complete, v. 28, p. 185
!!!YOO: Rome, Italy: Fratelli Scalera
!!!END: 1992//
!!!EED: John Miller
!!!YEC: Copyright 2000, John Miller
!!!YEN: United States of America
!!!YEM: Rights to all derivative electronic formats reserved.
!!!YEM: Refer to licensing agreement for further details.
!!!YEM: This file must be accompanied by the licensing agreement.
!!!YEM: A copy of the licensing agreement may be found at http://www.music-cog.ohio-state.edu/HumdrumDatabases/Palestrina/license.txt
!!!EMD: converted to Humdrum by Bret Aarden
